flaticon/coffee-shop/grinder.svg

<svg xmlns="http://www.w3.org/2000/svg" width="32" height="32" viewBox="0 0 24 24">
    <path d="M 20.722656 18.320312 L 19.621094 13.246094 L 20.363281 11.761719 C 20.441406 11.640625 20.441406 11.480469 20.363281 11.359375 C 20.28125 11.238281 20.125 11.160156 20.003906 11.160156 L 17.601562 11.160156 L 17.601562 10.210938 C 19.105469 9.15625 20.003906 7.414062 20.003906 5.519531 L 20.003906 4.800781 C 20.003906 4.558594 19.84375 4.398438 19.601562 4.398438 L 15.203125 4.398438 L 15.203125 2.800781 L 15.601562 2.800781 C 15.761719 2.800781 15.921875 2.71875 15.964844 2.519531 L 16.761719 0.519531 C 16.804688 0.398438 16.804688 0.28125 16.722656 0.160156 C 16.644531 0.078125 16.523438 0 16.402344 0 L 13.203125 0 C 13.082031 0 12.964844 0.078125 12.882812 0.199219 C 12.804688 0.28125 12.804688 0.441406 12.84375 0.558594 L 13.644531 2.558594 C 13.683594 2.71875 13.84375 2.800781 14.003906 2.800781 L 14.402344 2.800781 L 14.402344 3.199219 L 10.523438 3.199219 L 9.441406 2.480469 C 9.363281 2.441406 9.28125 2.398438 9.203125 2.398438 L 6.664062 2.398438 L 7.164062 1.398438 C 7.242188 1.28125 7.242188 1.121094 7.164062 1 C 7.082031 0.878906 6.921875 0.800781 6.804688 0.800781 L 3.601562 0.800781 C 3.484375 0.800781 3.324219 0.878906 3.242188 0.960938 C 3.203125 1.078125 3.164062 1.238281 3.242188 1.359375 L 4.042969 2.960938 C 4.125 3.121094 4.242188 3.199219 4.402344 3.199219 L 9.082031 3.199219 L 10.164062 3.921875 C 10.242188 3.960938 10.324219 4 10.402344 4 L 14.402344 4 L 14.402344 4.398438 L 10.003906 4.398438 C 9.761719 4.398438 9.601562 4.558594 9.601562 4.800781 L 9.601562 5.519531 C 9.601562 7.375 10.5 9.117188 12.003906 10.207031 L 12.003906 11.160156 L 9.601562 11.160156 C 9.441406 11.160156 9.324219 11.238281 9.242188 11.359375 C 9.203125 11.480469 9.164062 11.640625 9.242188 11.761719 L 9.984375 13.246094 L 8.882812 18.320312 C 8.84375 18.601562 8.804688 18.921875 8.804688 19.199219 C 8.804688 21.679688 10.683594 23.71875 13.164062 23.960938 L 13.601562 24 L 16.042969 24 L 16.441406 23.960938 C 18.921875 23.71875 20.804688 21.679688 20.804688 19.199219 C 20.804688 18.921875 20.761719 18.640625 20.722656 18.320312 Z M 13.804688 0.800781 L 15.804688 0.800781 L 15.324219 2 L 14.28125 2 Z M 5.203125 2.398438 L 4.644531 2.398438 L 4.242188 1.601562 L 6.164062 1.601562 L 5.761719 2.398438 Z M 10.402344 5.519531 L 10.402344 5.199219 L 19.203125 5.199219 L 19.203125 5.519531 C 19.203125 7.160156 18.402344 8.679688 17.082031 9.601562 L 12.523438 9.601562 C 11.203125 8.679688 10.402344 7.160156 10.402344 5.519531 Z M 12.804688 10.398438 L 16.804688 10.398438 L 16.804688 11.160156 L 12.804688 11.160156 Z M 12.402344 12 L 19.363281 12 L 18.964844 12.800781 L 10.644531 12.800781 L 10.242188 12 Z M 16.402344 23.160156 L 16.003906 23.199219 L 13.644531 23.199219 L 13.203125 23.160156 C 11.164062 22.960938 9.601562 21.28125 9.601562 19.199219 C 9.601562 18.960938 9.644531 18.71875 9.683594 18.480469 L 10.722656 13.601562 L 18.882812 13.601562 L 19.921875 18.480469 C 19.964844 18.71875 20.003906 18.960938 20.003906 19.199219 C 20.003906 21.28125 18.441406 22.960938 16.402344 23.160156 Z M 16.402344 23.160156"/>
    <path d="M 13.722656 21.601562 L 13.363281 21.558594 C 12.125 21.441406 11.203125 20.441406 11.203125 19.199219 C 11.203125 19.078125 11.203125 18.921875 11.242188 18.761719 C 11.28125 18.519531 11.125 18.320312 10.921875 18.28125 C 10.683594 18.238281 10.484375 18.398438 10.441406 18.601562 C 10.402344 18.800781 10.402344 19 10.402344 19.199219 C 10.402344 20.839844 11.644531 22.199219 13.28125 22.359375 L 13.683594 22.398438 C 13.882812 22.398438 14.042969 22.238281 14.082031 22.039062 C 14.125 21.800781 13.921875 21.601562 13.722656 21.601562 Z M 13.722656 21.601562"/>
</svg>

<svg xmlns="http://www.w3.org/2000/svg" width="32" height="32" viewBox="0 0 24 24">
    <path d="M20.723 18.32l-1.102-5.074.742-1.484a.375.375 0 0 0 0-.403.473.473 0 0 0-.36-.199h-2.401v-.95c1.503-1.054 2.402-2.796 2.402-4.69V4.8c0-.241-.16-.402-.402-.402h-4.399V2.801h.399c.16 0 .32-.082.363-.281l.797-2a.374.374 0 0 0-.04-.36c-.077-.082-.199-.16-.32-.16h-3.199c-.121 0-.238.078-.32.2-.078.081-.078.241-.04.359l.802 2c.039.16.199.242.359.242h.398v.398h-3.879L9.441 2.48c-.078-.039-.16-.082-.238-.082H6.664l.5-1a.368.368 0 0 0 0-.398.48.48 0 0 0-.36-.2H3.603a.595.595 0 0 0-.36.16c-.039.118-.078.278 0 .4l.801 1.6c.082.161.2.24.36.24h4.679l1.082.722a.57.57 0 0 0 .238.078h4v.398h-4.398c-.242 0-.402.16-.402.403v.719c0 1.855.898 3.597 2.402 4.687v.953H9.602a.418.418 0 0 0-.36.2c-.039.12-.078.28 0 .402l.742 1.484-1.101 5.074c-.04.282-.078.602-.078.88 0 2.48 1.879 4.519 4.36 4.76l.437.04h2.441l.398-.04c2.48-.241 4.364-2.28 4.364-4.76 0-.278-.043-.56-.082-.88zM13.805.8h2l-.48 1.2H14.28zM5.203 2.399h-.558l-.403-.796h1.922l-.402.796zm5.2 3.122V5.2h8.8v.32c0 1.64-.8 3.16-2.121 4.082h-4.559a4.975 4.975 0 0 1-2.12-4.082zm2.402 4.878h4v.762h-4zM12.402 12h6.961l-.398.8h-8.32l-.403-.8zm4 11.16l-.398.04h-2.36l-.44-.04a3.963 3.963 0 0 1-3.602-3.96c0-.24.043-.481.082-.72l1.039-4.878h8.16l1.039 4.878c.043.239.082.48.082.72a3.963 3.963 0 0 1-3.602 3.96zm0 0"/>
    <path d="M13.723 21.602l-.36-.043c-1.238-.118-2.16-1.118-2.16-2.36 0-.12 0-.277.04-.437a.412.412 0 0 0-.321-.48.413.413 0 0 0-.48.32c-.04.199-.04.398-.04.597 0 1.64 1.243 3 2.88 3.16l.402.04c.199 0 .359-.16.398-.36a.379.379 0 0 0-.36-.437zm0 0"/>
</svg>
